flags/tf.svg

<svg width="512" height="512" viewBox="0 0 512 512" fill="none" xmlns="http://www.w3.org/2000/svg">
<rect width="512" height="512" fill="var(--flag-palette-navy, #002266)"/>
<path fill-rule="evenodd" clip-rule="evenodd" d="M336 277L323 256H445L432 277H396V289H424L412 309H396V348L423 305L460 364H442L438.647 358H407.4L384 400L360.6 358H329.353L326 364H308L345 305L372 348V277H336ZM337.176 344H352.8L345 330L337.176 344ZM415.2 344H430.824L423 330L415.2 344ZM306.132 294L301 279L295.868 294H280L292.886 302.717L288 317L301 308.206L314 317L309.114 302.717L322 294H306.132ZM472.132 294L467 279L461.868 294H446L458.886 302.717L454 317L467 308.206L480 317L475.114 302.717L488 294H472.132ZM344.132 395L339 380L333.868 395H318L330.886 403.717L326 418L339 409.206L352 418L347.114 403.717L360 395H344.132ZM434.132 395L429 380L423.868 395H408L420.886 403.717L416 418L429 409.206L442 418L437.114 403.717L450 395H434.132ZM389.132 429L384 414L378.868 429H363L375.886 437.717L371 452L384 443.206L397 452L392.114 437.717L405 429H389.132Z" fill="var(--flag-palette-white, #eeeeee)"/>
<rect width="256" height="256" fill="var(--flag-palette-white, #eeeeee)"/>
<path d="M0 0H75V224H0V0Z" fill="var(--flag-palette-navy, #002266)"/>
<path d="M75 0H149V224H75V0Z" fill="var(--flag-palette-white, #eeeeee)"/>
<path d="M149 0H224V224H149V0Z" fill="var(--flag-palette-bright-red, #d80027)"/>
</svg>

<svg xmlns="http://www.w3.org/2000/svg" width="512" height="512" fill="none"><path fill="var(--flag-palette-navy, #002266)" d="M0 0h512v512H0z"/><path fill="var(--flag-palette-white, #eeeeee)" fill-rule="evenodd" d="m336 277-13-21h122l-13 21h-36v12h28l-12 20h-16v39l27-43 37 59h-18l-3.4-6h-31.2L384 400l-23.4-42h-31.2l-3.4 6h-18l37-59 27 43v-71zm1.2 67h15.6l-7.8-14zm78 0h15.6l-7.8-14zm-109-50-5.2-15-5.1 15H280l12.9 8.7L288 317l13-8.8 13 8.8-4.9-14.3L322 294zm166 0-5.2-15-5.1 15H446l12.9 8.7L454 317l13-8.8 13 8.8-4.9-14.3L488 294zm-128 101-5.2-15-5.1 15H318l12.9 8.7L326 418l13-8.8 13 8.8-4.9-14.3L360 395zm90 0-5.2-15-5.1 15H408l12.9 8.7L416 418l13-8.8 13 8.8-4.9-14.3L450 395zm-45 34-5.2-15-5.1 15H363l12.9 8.7L371 452l13-8.8 13 8.8-4.9-14.3L405 429z" clip-rule="evenodd"/><path fill="var(--flag-palette-white, #eeeeee)" d="M0 0h256v256H0z"/><path fill="var(--flag-palette-navy, #002266)" d="M0 0h75v224H0z"/><path fill="var(--flag-palette-white, #eeeeee)" d="M75 0h74v224H75z"/><path fill="var(--flag-palette-bright-red, #d80027)" d="M149 0h75v224h-75z"/></svg>
